X:1
T:Lady Jane Gray's -- Reel
R:reel
B:Ryan's Mammoth Collection
N: 280
Z: Contributed by Ray Davies,  ray:davies99.freeserve.co.uk
M:C|
L:1/8
K:G
vDGGF Adde | ABcA dBcA | DGGF Adde | fdcA (BG)G2 |
 DGGF Adde | ABcA dBcA | DGGF Adde | fdcA (BG)G2 :|
|:vdggf g2(ag) | edde fgaf | dggf g2(ag) | fdcA (BG)G2 |
   dggf g2(ag) | edde (fg)a2 | bgaf gdde | fdcA (BG)G2 :|
